!!!!SEGMENT: pl-kk--kk-i-356--002_lasso-orlando-di--veni-domine.krn
!!!cenid: 17xx:1944
!!!COM: Lasso, Orlando di
!!!COM-rismID:
!!!CDT: ~1532-1594/06/14
!!!CNT: French-Flemish
!!!OTL: Veni Domine
!!!PDT:
!!!AGN: Sacred
!!!SMS-siglum: PL-Kk
!!!SMS-shelfmark: Kk.I.356
!!!SMS-shelfwork: 002 W
!!!SMS-variant:
!!!SMS-altvar:
!!!NIFC-rismSourceID: 1001141849
!!!NIFC-islandoraID: pl-kk:5933
!!!URL-pdf-islandora: https://repozytorium.nifc.pl/islandora/object/pl-kk%3A5933/datastream/PDF/view
!!!URL-scan: https://polish.musicsources.pl/pl/lokalizacje/galeria/rekopisy/5972 @EN{Scan on Polish Music Herritage in Open Access Website} @PL{Skany w portalu Dziedzictwo Muzyki Polskiej w otwartym dostępie}
!!!ONB-nifc: UWAGA: tylko partia basu.
!!!AIN: 1 empty
!!!key:
**kern	**text
*Iempty	*
*I"Baſso.	*
*I'B	*
*clefF4	*
*k[b-]	*
*g:	*
*M2/1	*
!LO:TX:t=P:problem=znaki w jednej linii BB- B-	!
!LO:TX:a:t=Tol. 6.	!
!LO:TX:t=P:problem=metrum C|	!
=1-	=1-
00r	.
=2-	=2-
.	.
=3-	=3-
.	.
=4-	=4-
.	.
=5-	=5-
00r	.
=-	=-
.	.
=-	=-
.	.
=-	=-
.	.
=-	=-
1r	.
1.D\	Ve-
=6-	=6-
.	.
!LO:TX:t=P:problem=kasownik zapisany jako krzyżyk	!
2BBn/	-ni
2C/	Do-
2C/	-mi-
=7-	=7-
!LO:TX:t=P:problem=kreska pseudotaktowa	!
1D\	-ne
1D\	et
=8-	=8-
1B-\	no-
*2\right	*
2.A\	.
4G\	.
=9-	=9-
2F\	-li
2G\	tar-
1D\	-da-
=10-	=10-
!LO:TX:t=P:problem=kreska pseudotaktowa	!
1G\	-re
00r	.
=11-	=11-
.	.
=12-	=12-
.	.
=-	=-
.	.
=-	=-
.	.
1r	.
=13-	=13-
1.D\	ve-
!LO:TX:t=P:problem=kasownik zapisany jako krzyżyk	!
2BBn/	-ni
=14-	=14-
2C/	Do-
2C/	-mi-
!LO:TX:t=P:problem=kreska pseudotaktowa	!
0D\	-ne
=15-	=15-
.	.
2r	.
2G\	et
=16-	=16-
2A\	no-
!LO:TX:t=P:problem=kreska pseudotaktowa	!
2F\	-li
!!LO:LB:g=original
4F\	tar-
4D\	.
2G\	.
=17-	=17-
!LO:TX:t=P:problem=kreska pseudotaktowa	!
1D\	-da-
2GG,</	-re
2G\	et
=18-	=18-
2A\	no-
2F\	-li
4F\	tar-
4C/	.
2G\	.
=19-	=19-
1D\	-da-
!LO:TX:t=P:problem=kreska pseudotaktowa	!
1GG/	-re
=20-	=20-
2r	.
2D/	re-
1B-\	-la-
=21-	=21-
!LO:TX:t=P:problem=kreska pseudotaktowa	!
1BB-y/	-xa
1r	.
=22-	=22-
2r	.
2D/	fa-
2.F\	-ci-
4C/	-no-
=23-	=23-
!LO:TX:t=P:problem=kreska pseudotaktowa	!
1C/	-ra
1AA/	ple-
=24-	=24-
1BB-/	-bi
1F\	tu-
=25-	=25-
!LO:TX:t=P:problem=kreska pseudotaktowa	!
1BB-/	-ae
!!LO:LB:g=original
1r	.
=26-	=26-
2r	.
2B-\	et
4A\	re-
4G\	.
4F\	.
4A\	.
=27-	=27-
2.G\	.
4G\	-vo-
!!LO:LB:g=original
1D\	-ca
=28-	=28-
0r	.
=29-	=29-
2r	.
2C/	dis-
4G\	.
4A\	.
4B-\	.
4A\	.
=30-	=30-
2G\	-per-
!LO:TX:t=P:problem=kreska pseudotaktowa	!
2F\	-sos
1r	.
=31-	=31-
2r	.
2D/	in
1BB-/	ter-
=32-	=32-
!LO:TX:t=P:problem=kreska pseudotaktowa	!
1GG/	-ram
2.G\	tu-
4F\	.
=33-	=33-
2.E-X\	.
4D\	.
1C/	.
=34-	=34-
!LO:TX:t=P:problem=kreska pseudotaktowa	!
1BB-/	-am
!!LO:LB:g=original
1r	.
=35-	=35-
2r	.
2B-\	et
4A\	re-
4G\	.
4F\	.
4B-\	.
=36-	=36-
2.G\	.
4G\	-vo-
!LO:TX:t=P:problem=kreska pseudotaktowa	!
1D\	-ca
=37-	=37-
0r	.
=38-	=38-
2r	.
2C/	dis-
4G\	-per-
4A\	.
4B-\	.
4A\	.
=39-	=39-
2G\	.
!LO:TX:t=P:problem=kreska pseudotaktowa	!
2F\	-sos
1r	.
=40-	=40-
2r	.
2D/	in
1BB-/	te-
=41-	=41-
!LO:TX:t=P:problem=kreska pseudotaktowa	!
1GG/	-ram
2.G\	su-
4F\	.
=42-	=42-
2.E-X\	.
4D\	.
1C/	.
=43-	=43-
!LO:TX:t=P:problem=kreska pseudotaktowa	!
1BB-/	-am
1B-\	in
=44-	=44-
1G\	ter-
1E-X\	.
=45-	=45-
2.BB-/	.
4C/	-ram
1D\	su-
=46-	=46-
0GG/;	-am
=-	=-
*-	*-
!!!EED: Leszek Kubiak
!!!EEV: 2021-02-23
!!!ENC: Marcin Jachim
!!!END: 2021-02-05
